build/images/icons/sort-icon-2.svg

<svg width="20" height="20" viewBox="0 0 20 20" fill="none" xmlns="http://www.w3.org/2000/svg">
<path d="M16.9997 10.4751C16.9997 11.0474 16.5517 11.5112 15.9989 11.5112C15.4464 11.5112 14.9981 11.0474 14.9981 10.4751V8.53756L10.0149 13.6967C9.82694 13.891 9.57257 14 9.30698 14C9.04166 14 8.78703 13.891 8.59937 13.6967L6.27508 11.2902L4.70869 12.9118C4.31775 13.3166 3.68415 13.3166 3.29321 12.9118C2.90226 12.5071 2.90226 11.8512 3.29321 11.4465L5.56747 9.09231C5.95841 8.68785 6.592 8.68785 6.98295 9.09258L9.30698 11.4988L13.5829 7.07219H11.711C11.1582 7.07219 10.7102 6.60838 10.7102 6.03609C10.7102 5.46381 11.1582 5 11.711 5H15.9992C16.5517 5 17 5.46408 17 6.03609L16.9997 10.4751Z" fill="#D9D9D9"/>
</svg>

<svg width="20" height="20" fill="none" xmlns="http://www.w3.org/2000/svg"><path d="M17 10.475c0 .572-.448 1.036-1.001 1.036-.553 0-1-.464-1-1.036V8.538l-4.984 5.159a.984.984 0 0 1-.708.303.984.984 0 0 1-.708-.303L6.275 11.29 4.71 12.912a.977.977 0 0 1-1.416 0 1.062 1.062 0 0 1 0-1.466l2.274-2.354a.977.977 0 0 1 1.416 0L9.307 11.5l4.276-4.427H11.71c-.553 0-1-.464-1-1.036 0-.572.447-1.036 1-1.036h4.288C16.552 5 17 5.464 17 6.036v4.44Z" fill="#D9D9D9"/></svg>
